ui/public/images/logo_matcha.svg

<?xml version="1.0" encoding="UTF-8"?>
<svg viewBox="0 0 77 77" xmlns="http://www.w3.org/2000/svg">
<path d="m29.246 60.487s0.01-0.01 0.04-0.02c-0.05-0.19-1.1396-4.9185 0-10.817 0.7998-4.1688 2.7292-8.9373 6.938-13.086 1.4595-1.4396 3.0091-2.6192 4.5786-3.559-2.5792-10.567-11.557-16.005-11.557-16.005s-12.246 7.4178-12.246 21.754c0 14.316 12.246 21.734 12.246 21.734z" fill="#00FFB0"/>
<path d="m60.926 27.777c-0.4158-0.0979-9.6371-2.1703-18.923 2.3104-3.371-9.6292-11.356-14.574-11.722-14.796-0.6379-0.3868-1.4366-0.3838-2.0714 1e-3 -0.5389 0.3259-13.21 8.1796-13.21 23.46 0 15.269 12.671 23.122 13.211 23.449 0.2169 0.132 0.4528 0.201 0.6928 0.2429 0.4328 0.097 2.6512 0.5579 5.8462 0.5579 5.3824 0 13.47-1.3196 20.185-7.9417 10.948-10.796 7.6257-25.198 7.4788-25.806-0.177-0.7338-0.7518-1.3046-1.4876-1.4776zm-41.928 10.976c0-10.615 7.4668-17.222 10.253-19.317 2.1603 1.6115 7.1028 5.8983 9.2272 12.687-5e-3 3e-3 -9e-3 7e-3 -0.014 0.01-0.5768 0.3959-1.1316 0.8218-1.6765 1.2617-0.1359 0.1099-0.2709 0.2219-0.4049 0.3339-0.5378 0.4528-1.0656 0.9187-1.5665 1.4136-0.3989 0.3928-0.7718 0.7917-1.1337 1.1936-0.1069 0.119-0.2099 0.2389-0.3139 0.3589-0.2609 0.3009-0.5128 0.6038-0.7547 0.9087-0.093 0.117-0.188 0.234-0.278 0.3519-0.3119 0.4079-0.6128 0.8178-0.8917 1.2306-0.025 0.037-0.048 0.075-0.073 0.113-0.032 0.047-0.06 0.094-0.0909 0.142v-9.1773c0-1.1037-0.8958-1.9994-1.9994-1.9994-1.1047 0-1.9995 0.8957-1.9995 1.9994v4.0198l-1.7734-1.7145c-0.7958-0.7678-2.0624-0.7468-2.8272 0.048-0.7688 0.7938-0.7468 2.0594 0.047 2.8272l4.5536 4.4017v4.0777l-1.6575-1.8974c-0.7267-0.8317-1.9884-0.9167-2.8201-0.1899-0.8318 0.7267-0.9167 1.9894-0.191 2.8211l4.5897 5.2545c-4e-3 0.022-8e-3 0.044-0.011 0.066-0.017 0.1019-0.036 0.2049-0.052 0.3059-0.059 0.3778-0.111 0.7497-0.154 1.1156-0.011 0.09-0.019 0.178-0.029 0.2669-0.0309 0.284-0.0589 0.5639-0.0819 0.8408-0.01 0.118-0.019 0.2349-0.027 0.3519-0.019 0.2669-0.034 0.5278-0.046 0.7858-4e-3 0.0869-0.01 0.1749-0.013 0.2599-0.013 0.3299-0.02 0.6508-0.022 0.9637-1e-3 0.091 0 0.1769 0 0.2659 0 0.2309 2e-3 0.4559 7e-3 0.6768 1e-3 0.05 0 0.104 2e-3 0.154-3.313-3.1691-7.7777-8.9664-7.7777-17.212zm33.129 13.461c-6.4941 6.4031-14.726 6.9639-19.176 6.707 1.6295-2.0874 4.1467-5.1605 7.2248-8.4375 1.1677-0.4789 5.1635-1.9904 10.058-2.4243 1.0997-0.098 1.9124-1.0677 1.8145-2.1683-0.097-1.0997-1.0447-1.9115-2.1684-1.8145-1.2996 0.115-2.5342 0.2979-3.6859 0.5148 2.0994-1.8704 4.3177-3.6509 6.5961-5.1834 0.9167-0.6168 1.1596-1.8585 0.5428-2.7752-0.6148-0.9157-1.8605-1.1596-2.7742-0.5418-3.313 2.2293-6.4751 4.9065-9.3382 7.6387-0.013-0.4269-0.036-0.8657-0.082-1.3256-0.1089-1.0977-1.0747-1.9014-2.1873-1.7915-1.0997 0.11-1.9005 1.0887-1.7915 2.1874 0.3009 3.0201-0.3899 5.0825-0.6468 5.7263-2.3133 2.5072-4.2797 4.8565-5.7693 6.721 0-0.032-2e-3 -0.061-2e-3 -0.093 0-0.043 1e-3 -0.089 1e-3 -0.132 0-0.3209 7e-3 -0.6528 0.02-0.9947 2e-3 -0.0459 2e-3 -0.0909 4e-3 -0.1379 0.015-0.3599 0.041-0.7328 0.073-1.1137 6e-3 -0.076 0.013-0.1519 0.021-0.2289 0.036-0.3879 0.08-0.7838 0.1369-1.1897 6e-3 -0.044 0.014-0.0889 0.021-0.1329 0.047-0.3249 0.106-0.6578 0.168-0.9917 0.042-0.138 0.069-0.2809 0.08-0.4299 0.0809-0.3999 0.1749-0.8058 0.2799-1.2156 0.022-0.085 0.045-0.17 0.068-0.255 0.1179-0.4378 0.2469-0.8797 0.3948-1.3256 0.011-0.035 0.025-0.07 0.037-0.1049 0.143-0.4259 0.3039-0.8538 0.4779-1.2837 0.03-0.0749 0.059-0.1499 0.09-0.2259 0.1839-0.4419 0.3868-0.8847 0.6068-1.3286 0.043-0.086 0.088-0.1729 0.1319-0.2589 0.233-0.4559 0.4809-0.9128 0.7548-1.3666 0.011-0.018 0.024-0.036 0.035-0.054 0.2679-0.4409 0.5598-0.8787 0.8687-1.3146 0.056-0.079 0.11-0.159 0.168-0.2379 0.3169-0.4349 0.6558-0.8658 1.0177-1.2927 0.068-0.0799 0.139-0.1599 0.2089-0.2399 0.3839-0.4409 0.7848-0.8787 1.2197-1.3076 0.6358-0.6268 1.3066-1.2156 2.0104-1.7625 0.0829-0.065 0.1709-0.1229 0.2539-0.1859 0.2709-0.205 0.5428-0.4099 0.8227-0.6018 0.3669-0.252 0.7398-0.4929 1.1207-0.7218l1e-3 -1e-3s1e-3 0 1e-3 -1e-3c6.714-4.0618 14.029-3.6389 16.913-3.2571 0.4718 3.449 0.9957 13.242-6.621 20.754z" fill="#333"/>
</svg>

<svg width="77" height="77" viewBox="0 0 77 77" fill="none" xmlns="http://www.w3.org/2000/svg">
  <path d="M29.2456 60.4871C29.2456 60.4871 29.2556 60.4771 29.2856 60.4671C29.2356 60.2771 28.146 55.5486 29.2856 49.6503C30.0854 45.4815 32.0148 40.713 36.2236 36.5642C37.6831 35.1246 39.2327 33.945 40.8022 33.0052C38.223 22.4384 29.2456 17 29.2456 17C29.2456 17 16.9993 24.4178 16.9993 38.7535C16.9993 53.0693 29.2456 60.4871 29.2456 60.4871Z" fill="#00FFB0"/>
  <path d="M60.9263 27.7771C60.5105 27.6792 51.2892 25.6068 42.003 30.0875C38.632 20.4583 30.6473 15.5138 30.2815 15.2918C29.6436 14.905 28.8449 14.908 28.2101 15.2928C27.6712 15.6187 15 23.4724 15 38.7529C15 54.0223 27.6712 61.875 28.2111 62.2019C28.428 62.3339 28.6639 62.4029 28.9039 62.4448C29.3367 62.5418 31.5551 63.0027 34.7501 63.0027C40.1325 63.0027 48.2201 61.6831 54.9351 55.061C65.8829 44.2652 62.5608 29.8625 62.4139 29.2547C62.2369 28.5209 61.6621 27.9501 60.9263 27.7771ZM18.9988 38.7529C18.9988 28.138 26.4656 21.531 29.2518 19.4356C31.4121 21.0471 36.3546 25.3339 38.479 32.1228C38.474 32.1258 38.47 32.1298 38.465 32.1328C37.8882 32.5287 37.3334 32.9546 36.7885 33.3945C36.6526 33.5044 36.5176 33.6164 36.3836 33.7284C35.8458 34.1812 35.318 34.6471 34.8171 35.142C34.4182 35.5348 34.0453 35.9337 33.6834 36.3356C33.5765 36.4546 33.4735 36.5745 33.3695 36.6945C33.1086 36.9954 32.8567 37.2983 32.6148 37.6032C32.5218 37.7202 32.4268 37.8372 32.3368 37.9551C32.0249 38.363 31.724 38.7729 31.4451 39.1857C31.4201 39.2227 31.3971 39.2607 31.3721 39.2987C31.3401 39.3457 31.3121 39.3927 31.2812 39.4407V30.2634C31.2812 29.1597 30.3854 28.264 29.2818 28.264C28.1771 28.264 27.2823 29.1597 27.2823 30.2634V34.2832L25.5089 32.5687C24.7131 31.8009 23.4465 31.8219 22.6817 32.6167C21.9129 33.4105 21.9349 34.6761 22.7287 35.4439L27.2823 39.8456V43.9233L25.6248 42.0259C24.8981 41.1942 23.6364 41.1092 22.8047 41.836C21.9729 42.5627 21.888 43.8254 22.6137 44.6571L27.2034 49.9116C27.1994 49.9336 27.1954 49.9556 27.1924 49.9776C27.1754 50.0795 27.1564 50.1825 27.1404 50.2835C27.0814 50.6613 27.0294 51.0332 26.9864 51.3991C26.9754 51.4891 26.9674 51.5771 26.9574 51.666C26.9265 51.95 26.8985 52.2299 26.8755 52.5068C26.8655 52.6248 26.8565 52.7417 26.8485 52.8587C26.8295 53.1256 26.8145 53.3865 26.8025 53.6445C26.7985 53.7314 26.7925 53.8194 26.7895 53.9044C26.7765 54.2343 26.7695 54.5552 26.7675 54.8681C26.7665 54.9591 26.7675 55.045 26.7675 55.134C26.7675 55.3649 26.7695 55.5899 26.7745 55.8108C26.7755 55.8608 26.7745 55.9148 26.7765 55.9648C23.4635 52.7957 18.9988 46.9984 18.9988 38.7529ZM52.128 52.2139C45.6339 58.617 37.4023 59.1778 32.9517 58.9209C34.5812 56.8335 37.0984 53.7604 40.1765 50.4834C41.3442 50.0045 45.34 48.493 50.2345 48.0591C51.3342 47.9611 52.1469 46.9914 52.049 45.8908C51.952 44.7911 51.0043 43.9793 49.8806 44.0763C48.581 44.1913 47.3464 44.3742 46.1947 44.5911C48.2941 42.7207 50.5124 40.9402 52.7908 39.4077C53.7075 38.7909 53.9504 37.5492 53.3336 36.6325C52.7188 35.7168 51.4731 35.4729 50.5594 36.0907C47.2464 38.32 44.0843 40.9972 41.2212 43.7294C41.2082 43.3025 41.1852 42.8637 41.1392 42.4038C41.0303 41.3061 40.0645 40.5024 38.9519 40.6123C37.8522 40.7223 37.0514 41.701 37.1604 42.7997C37.4613 45.8198 36.7705 47.8822 36.5136 48.526C34.2003 51.0332 32.2339 53.3825 30.7443 55.247C30.7443 55.215 30.7423 55.186 30.7423 55.154C30.7423 55.111 30.7433 55.065 30.7433 55.022C30.7433 54.7011 30.7503 54.3692 30.7633 54.0273C30.7653 53.9814 30.7653 53.9364 30.7673 53.8894C30.7823 53.5295 30.8083 53.1566 30.8403 52.7757C30.8463 52.6997 30.8533 52.6238 30.8613 52.5468C30.8973 52.1589 30.9413 51.763 30.9982 51.3571C31.0042 51.3131 31.0122 51.2682 31.0192 51.2242C31.0662 50.8993 31.1252 50.5664 31.1872 50.2325C31.2292 50.0945 31.2562 49.9516 31.2672 49.8026C31.3481 49.4027 31.4421 48.9968 31.5471 48.587C31.5691 48.502 31.5921 48.417 31.6151 48.332C31.733 47.8942 31.862 47.4523 32.0099 47.0064C32.0209 46.9714 32.0349 46.9364 32.0469 46.9015C32.1899 46.4756 32.3508 46.0477 32.5248 45.6178C32.5548 45.5429 32.5838 45.4679 32.6148 45.3919C32.7987 44.95 33.0016 44.5072 33.2216 44.0633C33.2646 43.9773 33.3096 43.8904 33.3535 43.8044C33.5865 43.3485 33.8344 42.8916 34.1083 42.4378C34.1193 42.4198 34.1323 42.4018 34.1433 42.3838C34.4112 41.9429 34.7031 41.5051 35.012 41.0692C35.068 40.9902 35.122 40.9102 35.18 40.8313C35.4969 40.3964 35.8358 39.9655 36.1977 39.5386C36.2657 39.4587 36.3367 39.3787 36.4066 39.2987C36.7905 38.8578 37.1914 38.42 37.6263 37.9911C38.2621 37.3643 38.9329 36.7755 39.6367 36.2286C39.7196 36.1636 39.8076 36.1057 39.8906 36.0427C40.1615 35.8377 40.4334 35.6328 40.7133 35.4409C41.0802 35.1889 41.4531 34.948 41.834 34.7191L41.835 34.7181C41.835 34.7181 41.836 34.7181 41.836 34.7171C48.55 30.6553 55.8648 31.0782 58.749 31.46C59.2208 34.909 59.7447 44.7021 52.128 52.2139Z" fill="#333333"/>
</svg>
